X: 11251
T: Lord John
%R: air, fanfare
B: James Oswald "The Caledonian Pocket Companion" v.1 b.1 p.25 #1
Z: 2020 John Chambers <jc:trillian.mit.edu>
M: 3/4
L: 1/8
K: D
%%slurgraces 1
%%graceslurs 1
Tc>B |\
A4 (A/B/c) | {B}A4 E>D | D4 (E/F/A) | A4 A2 |\
B4 (B/c/d) | TB4 (AG) | E4 (E/F/A) | {Bc}d4 D2 |
D4 (EF) | A4 (B>d) | A4 (B>d) | {d}e4 (d>e) |\
{ga}a4 (Te>d) | B3 A F2 | {F}E4 (E/F/)A | {AB}d4 |]


